X: 1
T: Sheehan's
R: reel
M: 4/4
L: 1/8
K: Gmaj
|:G2BG DGBG|ABcA BGGB|AEAB cBcA|EAAG FDEF|
G2BG DGBd|cBAB cdef|gedB c2Bc|dBcA BGG2:|
|:g2bg dgbg|gbag fdde|=f2af dfaf|gbag =fdd^f|
g2bg dgbg|gbag fdef|(3gfe dB c2Bc|dBcA BGG2:||


Tune 1178	Setting 7010

